src/assets/result_error.svg

<svg viewBox="0 0 200 200" version="1.1" xmlns="http://www.w3.org/2000/svg" xmlns:xlink="http://www.w3.org/1999/xlink">
  <title>结果-失败</title>
  <g id="页面-1" stroke="none" stroke-width="1">
      <g id="结果-失败">
          <g>
              <path d="M170.648494,29.3009625 C131.658473,-9.68905938 68.4284283,-9.68905938 29.4381779,29.3011908 C-9.55298594,68.2923549 -9.55344286,131.522628 29.4368074,170.51265 C68.4281998,209.503814 131.658473,209.503585 170.649637,170.512421 C209.639658,131.522399 209.639658,68.2923549 170.648494,29.3009625 Z M135.295093,145.573444 L100.170107,110.448687 L65.1561326,145.462662 L55.0665163,135.373046 L90.0807194,100.359071 L54.5576042,64.8361839 L64.6794275,54.7145893 L100.202314,90.2374761 L135.829131,54.6106596 L145.923772,64.7053011 L110.296956,100.332118 L145.414175,135.454133 L135.295093,145.573444 Z" id="形状" fill="rgba(241, 54, 66)" fill-rule="nonzero"></path>
          </g>
      </g>
  </g>
</svg>

<svg viewBox="0 0 200 200" xmlns="http://www.w3.org/2000/svg"><path d="M170.648 29.301c-38.99-38.99-102.22-38.99-141.21 0-38.991 38.991-38.991 102.222-.001 141.212 38.991 38.99 102.221 38.99 141.213 0 38.99-38.99 38.99-102.22-.002-141.212zm-35.353 116.272L100.17 110.45l-35.014 35.014-10.09-10.09 35.015-35.014-35.523-35.523 10.121-10.121 35.523 35.522 35.627-35.626 10.095 10.094-35.627 35.627 35.117 35.122-10.119 10.12z" fill="rgba(241, 54, 66)"/></svg>
